source/images/svg/menu.svg

<?xml version="1.0" encoding="UTF-8"?>
<svg width="24px" height="15px" viewBox="0 0 24 15" version="1.1" xmlns="http://www.w3.org/2000/svg" xmlns:xlink="http://www.w3.org/1999/xlink">
    <!-- Generator: Sketch 45.1 (43504) - http://www.bohemiancoding.com/sketch -->
    <title>Group</title>
    <desc>Created with Sketch.</desc>
    <defs></defs>
    <g id="Page-1" stroke="none" stroke-width="1" fill="none" fill-rule="evenodd">
        <g id="Dashboard" transform="translate(-23.000000, -30.000000)">
            <g id="Group" transform="translate(23.000000, 30.000000)">
                <path d="M0,15 L24,15 L24,12.5 L0,12.5 L0,15 Z M0,8.75 L24,8.75 L24,6.25 L0,6.25 L0,8.75 Z M0,0 L0,2.5 L24,2.5 L24,0 L0,0 Z" id="Shape_2_copy_6"></path>
            </g>
        </g>
    </g>
</svg>

<svg xmlns="http://www.w3.org/2000/svg" width="24" height="15" viewBox="0 0 24 15">
  <path fill-rule="evenodd" d="M0 15h24v-2.5H0V15zm0-6.25h24v-2.5H0v2.5zM0 0v2.5h24V0H0z"/>
</svg>
